X: 1
T: Captain Carswell
M: 4/4
L: 1/8
R: strathspey
K: Ador
G | A2  A>B A2 B>d | e>d B<d e>d B>A | G>A B>A B2 G>B | d>e d<B e2 d ||
B | A2  A>B A2 B>d | e>d B<d e>d B>A | G2  A>B e2 d>B | e2  d>B A2 A |]
d | e>f e<d e2 a2  | g>e f<d e2  d>B | d>B G>B d2 B>d | e>d B>d d2 B ||
d | e>f e<d e2 a2  | g>e f<d e2  d>B | G2  A>B e2 d>B | e2  d>B A2 A |]
